X:1
T:Title
%%score { ( 1 3 ) | ( 2 4 ) }
L:1/8
Q:1/4=92
M:4/4
K:Bb
V:1 treble nm="Grand Piano"
V:3 treble 
V:2 bass 
V:4 bass 
V:1
 [DF]2 [DF]>[DF] [EG]2 [FB]2 | A-[CA-][FA]A [DB]4 | c2 c>c d2 [DB]2 | A4 z4 | d2 d>d c2 A2 | %5
w: Geo.~C.~Stebbins * * * *|||||
 B4 z4 | G2 G>G F3 F | F2 F2 z4 |] %8
w: |||
V:2
 [B,,B,]2 [B,,B,]>[B,,B,] [E,B,]2 [D,B,]2 | F,A,C[F,CE] [B,,B,]4 | %2
 [F,A,F]2 [F,A,F]>[F,A,F] [B,F]2[K:bass] [B,,B,]2 | [F,C]A,CC, [F,A,]4 | %4
 [B,F]2 [B,F]>[B,F][K:bass] [F,A,E]2 [F,CE]2 | [B,D]C[F,D][D,B,] [E,B,E]4 | %6
 [E,B,E]2 [E,B,E]>[E,B,E] [D,B,]3 [_D,=B,] | z A, z C B,,4 |] %8
V:3
 x8 | .E2 z2 z4 | x8 | z F=E[B,EG] F4 | x8 | z EFF G4 | x8 | [CE]C[B,D]E [B,DF]4 |] %8
V:4
 x8 | C,4 z4 | x6[K:bass] x2 | C,4 z4 | x4[K:bass] x4 | G,2 z2 z4 | x8 | C,2 F,,2 z4 |] %8

